X: 3
M: 6/8
L: 1/8
K: Bb
"Bb"DE=E "D/Bb7"FGB | "Eb"G2E "G/Eb"EBE | "Bb"DE=E "Gm"FGB | "Cm"AB=B "F7"c2F |\
"Bb"DE=E "D/Bb7"FGB | "Eb"G2E "G/Eb"EBE | "Bb"DE=E "Gm"FGB | "F7"AGA "Bb"B2B :|
"Bb"dBF "D/Bb"DFB | "Eb"EGB "G/Eb"BGE | "Bb"DFB "Gm"BAG | "Cm"AB=B "F7"c2c |\
"Bb"dBF "D/Bb"DFB | "Eb"EGB "G/Eb"BGE | "Bb"DFB "Gm"Bcd | "F7"cBA "Bb"B2c |
"Bb"dBF "D/Bb"DFB | "Eb"EGB "G/Eb"BGE | "Bb"DFB "Gm"BAG | "Cm"AB=B "F7"c2c |\
"Bb"DE=E "D/Bb7"FGB | "Eb"G2E "G/Eb"EBE | "Bb"DE=E "Gm"FGB | "F7"AGA "Bb"B3 |]


